lib/assets/Icon_Cart_Small.svg

<svg height="12.196" viewBox="0 0 14.48 12.196" width="14.48" xmlns="http://www.w3.org/2000/svg" xmlns:xlink="http://www.w3.org/1999/xlink"><clipPath id="a"><path d="m0 0h14.48v12.196h-14.48z"/></clipPath><g clip-path="url(#a)" fill="none" stroke="#000" stroke-linecap="round" stroke-linejoin="round"><path d="m5.989-8.217h9.444" transform="translate(-1.543 13.599)"/><path d="m4.589-10.375 9.846-.218" transform="translate(-.554 14.016)"/><path d="m12.85-12.85.184 5.439" transform="translate(-2.22 14.435)"/><path d="m9-12.686a35.983 35.983 0 0 0 .127 5.324" transform="translate(-1.534 14.409)"/><path d="m4.39-12.85h10.969v5.715s-10.377-.675-10.459.885c-.06 1.08 7.123.7 10.463.667" transform="translate(-1.332 14.435)"/><path d="m.5-14.192c2.749-.161 3.89 3.707 3.944 6.841" transform="translate(-.048 14.649)"/><path d="m7.58-3.906a1.432 1.432 0 0 1 1.432 1.432 1.432 1.432 0 0 1 -1.432 1.432 1.432 1.432 0 0 1 -1.431-1.432 1.432 1.432 0 0 1 1.431-1.432z" transform="translate(-1.064 12.786)"/><path d="m13.98-3.906a1.432 1.432 0 0 1 1.431 1.432 1.432 1.432 0 0 1 -1.431 1.432 1.432 1.432 0 0 1 -1.432-1.431 1.432 1.432 0 0 1 1.432-1.433z" transform="translate(-2.236 12.786)"/></g></svg>

<svg xmlns="http://www.w3.org/2000/svg" xmlns:xlink="http://www.w3.org/1999/xlink" width="14.48" height="12.196" viewBox="0 0 14.48 12.196"><defs><style>.a,.c{fill:none;}.b{clip-path:url(#a);}.c{stroke:#000;stroke-linecap:round;stroke-linejoin:round;fill-rule:evenodd;}</style><clipPath id="a"><rect class="a" width="14.48" height="12.196"/></clipPath></defs><g class="b"><path class="c" d="M5.989-8.217h9.444" transform="translate(-1.543 13.599)"/><path class="c" d="M4.589-10.375l9.846-.218" transform="translate(-0.554 14.016)"/><path class="c" d="M12.85-12.85l.184,5.439" transform="translate(-2.22 14.435)"/><path class="c" d="M9-12.686a35.983,35.983,0,0,0,.127,5.324" transform="translate(-1.534 14.409)"/><path class="c" d="M4.39-12.85H15.359v5.715S4.982-7.81,4.9-6.25c-.06,1.08,7.123.7,10.463.667" transform="translate(-1.332 14.435)"/><path class="c" d="M.5-14.192c2.749-.161,3.89,3.707,3.944,6.841" transform="translate(-0.048 14.649)"/><path class="c" d="M7.58-3.906A1.432,1.432,0,0,1,9.012-2.474,1.432,1.432,0,0,1,7.58-1.042,1.432,1.432,0,0,1,6.149-2.474,1.432,1.432,0,0,1,7.58-3.906Z" transform="translate(-1.064 12.786)"/><path class="c" d="M13.98-3.906a1.432,1.432,0,0,1,1.431,1.432A1.432,1.432,0,0,1,13.98-1.042a1.432,1.432,0,0,1-1.432-1.431A1.432,1.432,0,0,1,13.98-3.906Z" transform="translate(-2.236 12.786)"/></g></svg>
